X: 137
T: Bottle and Glass
B: 204 Favourite Country Dances
N: Published by Straight & Skillern, London ca.1775
F: http://imslp.org/wiki/204_Favourite_Country_Dances_(Various) p.69 #137
Z: 2014 John Chambers <jc:trillian.mit.edu>
N: What's the reason for the natural sign in bar 10?
M: 6/8
L: 1/8
K: D
% - - - - - - - - - - - - - - - - - - - - - - - - -
A |\
dcd edc | dcB A2d | cAd BGE | FGA D2A |\
dcd edc | dfd B2a | edc agf | cdB A2 :|
|: e |\
edc gfe | fdB g2f | edc dF=A | B3- B2d |\
d^Ac BAG | Bed c2d | BAG FdA | BGF E2D :|
% - - - - - - - - - - - - - - - - - - - - - - - - -
%%begintext align
%% Cast off 2 Cu. .| Cast up again :| Cross over
%% 1 Cu. .|: Right and Left at top :|:
%%endtext

%%sep 1 1 500
%%sep 1 1 500
